lib/healthicons/icons/solid/symbols/water_treatment.svg

<svg fill="none" height="48" viewBox="0 0 48 48" width="48" xmlns="http://www.w3.org/2000/svg"><g fill="#333"><path d="m30 26.8182c0 3.4141-2.6863 6.1818-6 6.1818s-6-2.7677-6-6.1818c0-5.4091 6-11.8182 6-11.8182s6 6.4091 6 11.8182z"/><g clip-rule="evenodd" fill-rule="evenodd"><path d="m24 31c2.1533 0 4-1.8156 4-4.1818 0-2.0809-1.2057-4.6129-2.6705-6.8377-.4582-.6961-.9179-1.3268-1.3295-1.8607-.4115.5339-.8712 1.1646-1.3295 1.8607-1.4648 2.2248-2.6705 4.7568-2.6705 6.8377 0 2.3662 1.8467 4.1818 4 4.1818zm-1.3034-14.4602c-1.7648 2.2277-4.6966 6.4973-4.6966 10.2784 0 3.4141 2.6863 6.1818 6 6.1818s6-2.7677 6-6.1818c0-3.7811-2.9317-8.0507-4.6965-10.2784-.7599-.9592-1.3035-1.5398-1.3035-1.5398s-.5435.5806-1.3034 1.5398z"/><path d="m14.8607 10.8671c-3.138 2.1837-5.39031 5.4189-6.34922 9.1198-.9589 3.7008-.56096 7.6227 1.12176 11.0555 1.68276 3.4328 4.53896 6.1497 8.05166 7.6586s7.4496 1.7102 11.0978.5675l.5979 1.9085c-4.1043 1.2857-8.5333 1.0592-12.4851-.6384-3.9517-1.6975-7.16504-4.754-9.05811-8.6159-1.89306-3.8619-2.34074-8.274-1.26197-12.4375 1.07876-4.1634 3.61268-7.803 7.14288-10.25973z"/><path d="m33.1393 37.1329c3.138-2.1837 5.3904-5.4189 6.3493-9.1198.9589-3.7008.5609-7.6227-1.1218-11.0555s-4.539-6.1497-8.0517-7.6586c-3.5127-1.50894-7.4495-1.71023-11.0978-.56744l-.5978-1.90856c4.1043-1.28564 8.5332-1.05918 12.485.63837 3.9518 1.69756 7.1651 4.75403 9.0581 8.61593 1.8931 3.8619 2.3408 8.274 1.262 12.4375-1.0787 4.1634-3.6126 7.803-7.1429 10.2597z"/><path d="m14 10h-6.99998v-2h8.99998v9h-2z"/><path d="m34 38h7v2h-9v-9h2z"/></g></g></svg>

<svg width="48" height="48" viewBox="0 0 48 48" fill="none" xmlns="http://www.w3.org/2000/svg">
<path d="M30 26.8182C30 30.2323 27.3137 33 24 33C20.6863 33 18 30.2323 18 26.8182C18 21.4091 24 15 24 15C24 15 30 21.4091 30 26.8182Z" fill="#333333"/>
<path fill-rule="evenodd" clip-rule="evenodd" d="M24 31C26.1533 31 28 29.1844 28 26.8182C28 24.7373 26.7943 22.2053 25.3295 19.9805C24.8713 19.2844 24.4116 18.6537 24 18.1198C23.5885 18.6537 23.1288 19.2844 22.6705 19.9805C21.2057 22.2053 20 24.7373 20 26.8182C20 29.1844 21.8467 31 24 31ZM22.6966 16.5398C20.9318 18.7675 18 23.0371 18 26.8182C18 30.2323 20.6863 33 24 33C27.3137 33 30 30.2323 30 26.8182C30 23.0371 27.0683 18.7675 25.3035 16.5398C24.5436 15.5806 24 15 24 15C24 15 23.4565 15.5806 22.6966 16.5398Z" fill="#333333"/>
<path fill-rule="evenodd" clip-rule="evenodd" d="M14.8607 10.8671C11.7227 13.0508 9.47039 16.286 8.51148 19.9869C7.55258 23.6877 7.95052 27.6096 9.63324 31.0424C11.316 34.4752 14.1722 37.1921 17.6849 38.701C21.1976 40.2099 25.1345 40.4112 28.7827 39.2685L29.3806 41.177C25.2763 42.4627 20.8473 42.2362 16.8955 40.5386C12.9438 38.8411 9.73046 35.7846 7.83739 31.9227C5.94433 28.0608 5.49665 23.6487 6.57542 19.4852C7.65418 15.3218 10.1881 11.6822 13.7183 9.22547L14.8607 10.8671Z" fill="#333333"/>
<path fill-rule="evenodd" clip-rule="evenodd" d="M33.1393 37.1329C36.2773 34.9492 38.5297 31.714 39.4886 28.0131C40.4475 24.3123 40.0495 20.3904 38.3668 16.9576C36.6841 13.5248 33.8278 10.8079 30.3151 9.299C26.8024 7.79006 22.8656 7.58877 19.2173 8.73156L18.6195 6.823C22.7238 5.53736 27.1527 5.76382 31.1045 7.46137C35.0563 9.15893 38.2696 12.2154 40.1626 16.0773C42.0557 19.9392 42.5034 24.3513 41.4246 28.5148C40.3459 32.6782 37.812 36.3178 34.2817 38.7745L33.1393 37.1329Z" fill="#333333"/>
<path fill-rule="evenodd" clip-rule="evenodd" d="M14 10H7.00002V8H16V17H14V10Z" fill="#333333"/>
<path fill-rule="evenodd" clip-rule="evenodd" d="M34 38H41V40H32L32 31H34L34 38Z" fill="#333333"/>
</svg>
